X: 11
T: The NEW HIGH LEVEL
C: Andrew Rankine
R: reel, hornpipe
B: "The Complete Andrew Rankine Collection of Scottish Country Dance Tunes" p.14
Z: 2017 John Chambers <jc:trillian.mit.edu>
M: C|
L: 1/8
K: G
D2 |\
"G"G2DG B2GB | d2ed cBAG |\
"D7"F2DF A2FA | dcde dcBA |
"G"G2DG B2GB | d2ed cBAG |\
"D7"FDFA dcBA | "G"G2B2 G2 :|
|: Bc |\
"G"d2Bd "G7"gdBd | "C"e2ce gece |\
"G"d2Bd gdBd | "D7"c2 fe dcBc |
"G"d2Bd "G7"gdBd | "C"e2ce gece |\
"D7"dgfe dcBA | "G"G2B2 G2 :|

%%sep 1 1 500

